icons/edit.svg

<svg width="24" height="24" viewBox="0 0 24 24" fill="none" xmlns="http://www.w3.org/2000/svg">
<path fill-rule="evenodd" clip-rule="evenodd" d="M16.2929 3.29289C16.6834 2.90237 17.3166 2.90237 17.7071 3.29289L20.7071 6.29289C21.0976 6.68342 21.0976 7.31658 20.7071 7.70711L9.41421 19H20C20.5523 19 21 19.4477 21 20C21 20.5523 20.5523 21 20 21H4C3.44772 21 3 20.5523 3 20V17C3 16.7348 3.10536 16.4804 3.29289 16.2929L16.2929 3.29289ZM6.58579 19L15.798 9.78776L14.2122 8.20197L5 17.4142V19H6.58579ZM15.6265 6.78776L17.2122 8.37355L18.5858 7L17 5.41421L15.6265 6.78776Z" fill="black"/>
</svg>

<svg
  width="24"
  height="24"
  viewBox="0 0 24 24"
  xmlns="http://www.w3.org/2000/svg"
>
  <path
    fill-rule="evenodd"
    clip-rule="evenodd"
    d="M16.293 3.293a1 1 0 0 1 1.414 0l3 3a1 1 0 0 1 0 1.414L9.414 19H20a1 1 0 1 1 0 2H4a1 1 0 0 1-1-1v-3a1 1 0 0 1 .293-.707l13-13zM6.586 19l9.212-9.212-1.586-1.586L5 17.414V19h1.586zm9.04-12.212l1.586 1.586L18.586 7 17 5.414l-1.373 1.374z"
  />
</svg>
